X: 379
T: A Tailor I Am
R: jig
M: 6/8
K: Gmajor
|:dc|~B3 dBA|GBA G2B|dcB c2d|ecA c/d/ec|
BAB dBA|GBA G2B|dcB Adc|BGF G:|
|:Bc|dBd g2a|bga fge|dcB c2d|ecA A e/f/g|
afd g2a|bga fge|dcB Adc|BGF G:|

